assets/images/partner-purium.svg

<svg height="63" viewBox="0 0 123 63" width="123" xmlns="http://www.w3.org/2000/svg" xmlns:xlink="http://www.w3.org/1999/xlink"><linearGradient id="a" x1="50%" x2="50%" y1="0%" y2="100%"><stop offset="0" stop-color="#adc32b"/><stop offset=".341657366" stop-color="#adc32b"/><stop offset=".732820472" stop-color="#33a544"/><stop offset="1" stop-color="#33a544"/></linearGradient><g fill="none" fill-rule="evenodd"><path d="m60.0514286 54.9032143h3.7485714v-22.0828572h-3.7485714zm62.0700004-12.6071429v12.6071429h-3.706429v-12.6071429c0-4.0971428-1.979286-6.4471428-5.429286-6.4471428-3.647143 0-5.437143 1.9707143-5.472857 6.0242857l-.043571 13.03h-3.576429l-.087143-13.0307143c0-4.1457143-1.805714-6.0164286-5.855714-6.065-1.5357143 0-3.3285714.0842857-5.0028571.6992857v18.3964286h-3.7485715v-20.795l.1335715-.0471429c2.9142857-1.0328571 5.9092857-1.5792857 8.6628571-1.5792857 3.807857.0528572 6.320714 1.2042857 7.669286 3.5171429 1.406428-2.3057143 3.867857-3.4735715 7.321428-3.4735715 5.891429 0 9.135715 3.47 9.135715 9.7707143zm-39.4285719-9.3478571h3.7492858v20.7942857l-.135.0478571c-3.345 1.1814286-5.8314286 1.6635715-8.5785715 1.6635715-6.68 0-11.1678571-4.0464286-11.1678571-10.0685715v-12.3964285h3.7057143v12.3964285c0 4.0714286 2.9121428 6.7014286 7.42 6.7014286 1.5371428 0 3.3271428-.085 5.0064285-.7014286zm-24.7728571.5285714.17.0842857-1.3842857 3.2464286-.1892857-.0892857c-1.015-.4778572-2.0464286-.7207143-3.0635715-.7207143-3.2378571 0-5.4978571 2.3807143-5.4978571 5.7892857v13.1164286h-3.7064286v-21.9985714h3.2164286l.2935714 2.3835714c1.2778572-1.7771429 3.41-2.785 5.9385715-2.785 1.4671428 0 2.9671428.3457143 4.2228571.9735714zm-20.1807143-.5285714h3.7485714v20.7942857l-.1342857.0478571c-3.3457143 1.1814286-5.8314285 1.6635715-8.5785714 1.6635715-6.6807143 0-11.1685714-4.0464286-11.1685714-10.0685715v-12.3964285h3.7064285v12.3964285c0 4.0714286 2.9121429 6.7014286 7.4192858 6.7014286 1.5371428 0 3.3271428-.085 5.0071428-.7014286zm-21.5214286 10.6571428c-.0442857 4.065-2.9421428 8.2692858-7.71642853 8.2692858-1.63071428 0-3.32714286-.3071429-4.79428571-.8671429v-14.6178571c1.38642857-.4207143 2.95714285-.6257143 4.79428571-.6257143 2.17428573 0 4.06857143.7521428 5.47642853 2.175 1.4464286 1.4628571 2.2628572 3.5278571 2.24 5.6664285zm-7.71928567-11.1235714c-2.27.0364286-5.27214286.21-8.36071429 1.2371429l-.13785714.0464285v28.5778572h3.70714286v-8.1628572c1.47785714.7042858 3.08928571 1.0607143 4.79428571 1.0607143 4.29071433 0 6.96071433-2.0257143 8.44571433-3.7257143 1.8692857-2.14 2.9542857-5.0364285 2.9771428-7.9485714 0-5.5085714-3.9235714-11.085-11.42571427-11.085z" fill="#4e7182"/><path d="m61.9765.05407143c-.0928571-.07214286-.2228571-.07214286-.3157143 0l-.8857143.69285714c-.4071428.31928572-9.9692857 7.90714286-9.9692857 16.05642853 0 6.6285715 4.4807143 10.0985715 6.4071429 11.2828572.06.0364286.1314285.0471428.1971428.03.0678572-.0171429.1242857-.0614286.1592857-.1214286l1.4207143-2.4992857c.0678572-.1192857.0292857-.27-.0864285-.3428571-1.4171429-.8878572-4.7128572-3.4792858-4.7128572-8.3492858 0-5.0914285 5.2807143-10.38999996 7.5507143-12.43142853l.085-.07714286.0857143.07642858c1.7678571 1.58285714 7.535 7.15642861 7.535 12.43214281 0 3.4678572-1.5778572 7.9042858-6.025 8.9935715l-1.2657143-11.8685715c-.0128571-.1307142-.1235714-.23-.2542857-.23-.1314286 0-.2414286.0992858-.255.23l-1.5528572 15.085c-.0071428.0721429.0171429.1435715.0657143.1971429.0485715.0535714.1171429.0835714.1892857.0835714h1.4692858c7.9107142 0 11.0128571-7.23 11.0128571-12.4907143 0-8.15214281-9.5628571-15.7378571-9.97-16.05642853z" fill="url(#a)"/></g></svg>

<?xml version="1.0" encoding="UTF-8" standalone="no"?>
<svg width="123px" height="63px" viewBox="0 0 123 63" version="1.1" xmlns="http://www.w3.org/2000/svg" xmlns:xlink="http://www.w3.org/1999/xlink">
    <!-- Generator: Sketch 45.2 (43514) - http://www.bohemiancoding.com/sketch -->
    <title>Logo / Color / Gradient</title>
    <desc>Created with Sketch.</desc>
    <defs>
        <linearGradient x1="50%" y1="0%" x2="50%" y2="100%" id="linearGradient-1">
            <stop stop-color="#ADC32B" offset="0%"></stop>
            <stop stop-color="#ADC32B" offset="34.1657366%"></stop>
            <stop stop-color="#33A544" offset="73.2820472%"></stop>
            <stop stop-color="#33A544" offset="100%"></stop>
        </linearGradient>
    </defs>
    <g id="Components-Kit" stroke="none" stroke-width="1" fill="none" fill-rule="evenodd">
        <g transform="translate(-908.000000, -820.000000)" id="Group-6">
            <g transform="translate(908.000000, 820.000000)">
                <g id="Group-2">
                    <g id="Logo-/-Color-/-Gradient">
                        <g>
                            <path d="M60.0514286,54.9032143 L63.8,54.9032143 L63.8,32.8203571 L60.0514286,32.8203571 L60.0514286,54.9032143 Z M122.121429,42.2960714 L122.121429,54.9032143 L118.415,54.9032143 L118.415,42.2960714 C118.415,38.1989286 116.435714,35.8489286 112.985714,35.8489286 C109.338571,35.8489286 107.548571,37.8196429 107.512857,41.8732143 L107.469286,54.9032143 L103.892857,54.9032143 L103.805714,41.8725 C103.805714,37.7267857 102,35.8560714 97.95,35.8075 C96.4142857,35.8075 94.6214286,35.8917857 92.9471429,36.5067857 L92.9471429,54.9032143 L89.1985714,54.9032143 L89.1985714,34.1082143 L89.3321429,34.0610714 C92.2464286,33.0282143 95.2414286,32.4817857 97.995,32.4817857 C101.802857,32.5346429 104.315714,33.6860714 105.664286,35.9989286 C107.070714,33.6932143 109.532143,32.5253571 112.985714,32.5253571 C118.877143,32.5253571 122.121429,35.9953571 122.121429,42.2960714 L122.121429,42.2960714 Z M82.6928571,32.9482143 L86.4421429,32.9482143 L86.4421429,53.7425 L86.3071429,53.7903571 C82.9621429,54.9717857 80.4757143,55.4539286 77.7285714,55.4539286 C71.0485714,55.4539286 66.5607143,51.4075 66.5607143,45.3853571 L66.5607143,32.9889286 L70.2664286,32.9889286 L70.2664286,45.3853571 C70.2664286,49.4567857 73.1785714,52.0867857 77.6864286,52.0867857 C79.2235714,52.0867857 81.0135714,52.0017857 82.6928571,51.3853571 L82.6928571,32.9482143 Z M57.92,33.4767857 L58.09,33.5610714 L56.7057143,36.8075 L56.5164286,36.7182143 C55.5014286,36.2403571 54.47,35.9975 53.4528571,35.9975 C50.215,35.9975 47.955,38.3782143 47.955,41.7867857 L47.955,54.9032143 L44.2485714,54.9032143 L44.2485714,32.9046429 L47.465,32.9046429 L47.7585714,35.2882143 C49.0364286,33.5110714 51.1685714,32.5032143 53.6971429,32.5032143 C55.1642857,32.5032143 56.6642857,32.8489286 57.92,33.4767857 L57.92,33.4767857 Z M37.7392857,32.9482143 L41.4878571,32.9482143 L41.4878571,53.7425 L41.3535714,53.7903571 C38.0078571,54.9717857 35.5221429,55.4539286 32.775,55.4539286 C26.0942857,55.4539286 21.6064286,51.4075 21.6064286,45.3853571 L21.6064286,32.9889286 L25.3128571,32.9889286 L25.3128571,45.3853571 C25.3128571,49.4567857 28.225,52.0867857 32.7321429,52.0867857 C34.2692857,52.0867857 36.0592857,52.0017857 37.7392857,51.3853571 L37.7392857,32.9482143 Z M16.2178571,43.6053571 C16.1735714,47.6703571 13.2757143,51.8746429 8.50142857,51.8746429 C6.87071429,51.8746429 5.17428571,51.5675 3.70714286,51.0075 L3.70714286,36.3896429 C5.09357143,35.9689286 6.66428571,35.7639286 8.50142857,35.7639286 C10.6757143,35.7639286 12.57,36.5160714 13.9778571,37.9389286 C15.4242857,39.4017857 16.2407143,41.4667857 16.2178571,43.6053571 L16.2178571,43.6053571 Z M8.49857143,32.4817857 C6.22857143,32.5182143 3.22642857,32.6917857 0.137857143,33.7189286 L0,33.7653571 L0,62.3432143 L3.70714286,62.3432143 L3.70714286,54.1803571 C5.185,54.8846429 6.79642857,55.2410714 8.50142857,55.2410714 C12.7921429,55.2410714 15.4621429,53.2153571 16.9471429,51.5153571 C18.8164286,49.3753571 19.9014286,46.4789286 19.9242857,43.5667857 C19.9242857,38.0582143 16.0007143,32.4817857 8.49857143,32.4817857 L8.49857143,32.4817857 Z" id="Fill-1" fill="#4E7182"></path>
                            <path d="M61.9765,0.0540714286 C61.8836429,-0.0180714286 61.7536429,-0.0180714286 61.6607857,0.0540714286 L60.7750714,0.746928571 C60.3679286,1.06621429 50.8057857,8.65407143 50.8057857,16.8033571 C50.8057857,23.4319286 55.2865,26.9019286 57.2129286,28.0862143 C57.2729286,28.1226429 57.3443571,28.1333571 57.4100714,28.1162143 C57.4779286,28.0990714 57.5343571,28.0547857 57.5693571,27.9947857 L58.9900714,25.4955 C59.0579286,25.3762143 59.0193571,25.2255 58.9036429,25.1526429 C57.4865,24.2647857 54.1907857,21.6733571 54.1907857,16.8033571 C54.1907857,11.7119286 59.4715,6.41335714 61.7415,4.37192857 L61.8265,4.29478571 L61.9122143,4.37121429 C63.6800714,5.95407143 69.4472143,11.5276429 69.4472143,16.8033571 C69.4472143,20.2712143 67.8693571,24.7076429 63.4222143,25.7969286 L62.1565,13.9283571 C62.1436429,13.7976429 62.0329286,13.6983571 61.9022143,13.6983571 C61.7707857,13.6983571 61.6607857,13.7976429 61.6472143,13.9283571 L60.0943571,29.0133571 C60.0872143,29.0855 60.1115,29.1569286 60.1600714,29.2105 C60.2086429,29.2640714 60.2772143,29.2940714 60.3493571,29.2940714 L61.8186429,29.2940714 C69.7293571,29.2940714 72.8315,22.0640714 72.8315,16.8033571 C72.8315,8.65121429 63.2686429,1.0655 62.8615,0.746928571 L61.9765,0.0540714286 Z" id="Fill-3" fill="url(#linearGradient-1)"></path>
                        </g>
                    </g>
                </g>
            </g>
        </g>
    </g>
</svg>
